_site/images/integrations/icon-down.svg

<svg fill="none" height="8" viewBox="0 0 13 8" width="13" xmlns="http://www.w3.org/2000/svg"><path clip-rule="evenodd" d="m10.2924 1.29359-4.29297 4.293-4.293-4.293c-.39238-.378968-1.016084-.373548-1.401818.01219-.3857336.38573-.3911534 1.00944-.012181 1.40181l4.999999 5c.3905.39039 1.0235.39039 1.414 0l4.99997-5c.26-.25107.3642-.62287.2727-.9725s-.3645-.62268-.7142-.71419c-.3496-.091518-.7214.01274-.9725.27269z" fill="#00a0b6" fill-rule="evenodd"/></svg>

<svg width="13" height="8" viewBox="0 0 13 8" fill="none" xmlns="http://www.w3.org/2000/svg">
<path fill-rule="evenodd" clip-rule="evenodd" d="M10.2924 1.29359L5.99943 5.58659L1.70643 1.29359C1.31405 0.914622 0.690346 0.920042 0.304612 1.30578C-0.0811216 1.69151 -0.0865414 2.31522 0.292431 2.70759L5.29243 7.70759C5.68293 8.09798 6.31593 8.09798 6.70643 7.70759L11.7064 2.70759C11.9664 2.45652 12.0706 2.08472 11.9791 1.73509C11.8876 1.38546 11.6146 1.11241 11.2649 1.0209C10.9153 0.929382 10.5435 1.03364 10.2924 1.29359Z" fill="#00A0B6"/>
</svg>
